TV/Source/Sky Movies Disney.svg

<svg height="6.168319mm" viewBox="0 0 78.957212 21.856249" width="22.28348mm" xmlns="http://www.w3.org/2000/svg" xmlns:xlink="http://www.w3.org/1999/xlink"><clipPath id="a"><path d="m480.614 257.811h82.8v24.803h-82.8z"/></clipPath><clipPath id="b"><path d="m490.432 261.47h63.166v17.485h-63.166z"/></clipPath><clipPath id="c"><path d="m480.614 257.811h82.8v24.803h-82.8z"/></clipPath><clipPath id="d"><path d="m490.432 261.47h63.166v17.485h-63.166z"/></clipPath><g clip-path="url(#d)" transform="matrix(1.25 0 0 -1.25 -613.03925 348.69375)"><g transform="translate(518.4089 267.8422)"><path d="m0 0c-1.26.417-2.522 1.117-3.352 2.231-.067.284.214.499.415.499.415.2.982.281 1.462.348.495.133 1.046.133 1.609.202 0-1.115-.134-2.163-.134-3.28m7.041 7.82c-3.555 2.445-8.021 4.193-12.483 2.797-.486-.135-.628-.701-.832-1.116.204-.352.697-.284 1.11-.352.068.068.417.068.35.284-.214.281-.561.135-.763.281.066.135.27.135.413.202 2.51.431 5.017 0 7.178-.831 2.586-1.05 5.507-2.581 6.621-5.376.348-1.048.214-2.376-.699-3.077-1.743-1.397-4.181-1.545-6.34-1.113-.069 1.316-.069 2.361-.069 3.761.134.148.284.081.487.081 1.19-.15 2.373-.214 3.415-.781 0-.131-.134-.269-.2-.349-.149-.269-.561-.269-.495-.619.213-.081.561-.144.844-.144.351.213.83.562.964.981.083.412-.068.762-.266 1.045-1.262 1.115-3.004 1.265-4.615 1.182l-.134.083-.066 1.663c-.066.498-.28.983-.763 1.13-.496-.847-.43-1.962-.564-3.009-.696-.135-1.394-.283-2.089-.566-.567-.201-1.115-.483-1.609-.966-.202-.214-.269-.496-.202-.78.829-1.463 2.373-2.579 3.833-3.277.067-.485.067-1.047.416-1.397.282-.067.565 0 .764 0 .349.132.28.561.349.831 2.44-.616 5.162-.415 7.186 1.05 1.249.979 1.877 2.442 1.527 4.056-.548 1.679-1.81 3.146-3.268 4.326" fill="#02a8eb"/></g></g><g clip-path="url(#c)" transform="matrix(1.25 0 0 -1.25 -613.03925 348.69375)"><g transform="translate(530.1422 272.4384)"><path d="m0 0c-.216 0-.281-.215-.349-.35-.216-1.328-.216-2.659-.216-4.056.069-.483-.065-1.183.497-1.317.27-.08.617 0 .832.202.066 1.612-.067 3.143-.215 4.688-.067.347-.134.833-.549.833" fill="#02a8eb"/></g><g transform="translate(530.0739 274.4675)"><path d="m0 0c .483.831 1.316 1.681 2.227 1.948.283 0 .631.081.763-.201.066-.567-.347-.98-.763-1.264-.134-.134-.349-.2-.562-.281-.55-.202-1.115-.269-1.665-.202m-1.047.483c-.146.147-.075.418 0 .563.068.134.203.351.35.486.201.215.485.348.697.497.137.066.27.066.419.066-.497-.498-1.05-1.049-1.466-1.612m4.67.631c.131.418.213.981-.217 1.332-.199.066-.416.28-.698.202l-.266.347c-.497.351-1.262.283-1.959.149-.63-.149-1.26-.632-1.741-1.115-.215-.215-.35-.497-.485-.699-.28-.563-.145-1.263.27-1.679v-.633c.147-.281.215-.416.426-.416.203 0 .35.416.416.483.553-.134 1.114-.202 1.678-.067.416.136.697.282 1.046.484.615.431 1.18.981 1.53 1.612" fill="#02a8eb"/></g><g transform="translate(532.15 271.7535)"><path d="m0 0c-.48-.284-.694-.765-.694-1.331.066-.215.214-.483.413-.564 1.046-.201 2.16-.134 3.206-.348.43-.137 1.046-.137 1.193-.768-.348-.483-1.258-.631-1.956-.765-.631 0-1.53-.283-2.026.282-.066.067-.066.282.08.351.698.415 1.598-.417 2.228-.351.979.135.979.419.979.633-.216.133-.766.349-1.195.416-.83.065-1.675.202-2.29-.283-.219-.215-.352-.484-.285-.832.285-.846 1.112-1.264 1.96-1.477 1.112-.137 2.358 0 3.124.845.281.416.348 1.249.144 1.812-.91 1.4-2.787.769-4.116 1.184-.133.081-.414.081-.414.216 1.112.484 2.44.416 3.62.563.429.067.844.067 1.114.349 0 .135.147.267 0 .416-1.53.633-3.687.417-5.085-.348" fill="#02a8eb"/></g><g transform="translate(540.6964 273.3509)"><path d="m0 0c-.134-.067-.069-.281-.069-.416.214-1.33.763-2.511.763-3.989-.064-.069.068-.267-.133-.267-.765 1.045-1.326 2.295-2.373 3.274-.216.135-.416 0-.482-.212-.429-.767-.564-1.6-.697-2.514 0-.697-.216-1.532.067-2.164.132-.213.348-.416.63-.416.133 0 .266.203.349.416l.199 2.931.067.214c.698-1.048 1.047-2.308 2.092-3.145.148-.133.429-.065.563.068.561.216.765.847.914 1.331.131 1.532-.215 3.008-1.048 4.19-.212.217-.429.632-.842.699" fill="#02a8eb"/></g></g><g clip-path="url(#b)" transform="matrix(1.25 0 0 -1.25 -613.03925 348.69375)"><g transform="translate(546.9286 268.4612)"><path d="m0 0c-.831.149-1.662-.202-2.506-.282v.08l.213.833c.134.486.765.283 1.114.349.416 0 .912-.066 1.179.216 0 .201.081.485-.067.618-.482.216-1.112.15-1.677.15h-.066l.282.832h1.111c.498.065 1.048 0 1.395.281.069.483-.347.834-.764 1.048-1.177.067-2.373-.214-3.552-.349-.068-.067-.346 0-.346-.135.132-.564.628-.632 1.043-.78l-.149-.416c-.133-.203-.133-.631-.482-.631-.066-.067-.349-.067-.28-.268.346-.78-.415-1.33-.35-2.098.067-.562.416-1.126.911-1.327 1.247-.216 2.294.481 3.205 1.179.067.217-.067.498-.214.7" fill="#02a8eb"/></g><g transform="translate(551.9957 268.5301)"><path d="m0 0c-.496-.419-1.047-.701-1.675-.701.28.498.628 1.048.977 1.612.349.419.698.902 1.183 1.333.213.066.213-.216.28-.285.067-.765-.214-1.463-.765-1.959m.966 3.142c-.201.215-.481.281-.765.215-.765-.417-1.395-.981-2.022-1.679-.417-.484-.835-1.116-1.248-1.612-.066.147-.066.281-.066.496.132 1.251 1.392 2.097 1.245 3.346-.2.08-.416-.267-.549-.416-.981-1.116-1.743-2.378-1.541-3.911.063-.282.213-.483.279-.764-.562-1.196-.831-2.593-1.112-3.91 0-.35-.147-.779 0-1.128.202-.417.7-.9 1.112-.833.281 1.678.765 3.278 1.262 4.823l.83.067c1.396.282 2.788 1.612 3.137 3.075.216.834-.066 1.6-.562 2.231" fill="#02a8eb"/></g></g><g clip-path="url(#a)" transform="matrix(1.25 0 0 -1.25 -613.03925 348.69375)"><path d="m509.357 261.592h.432v17.325h-.432z" fill="#02a8eb"/><g transform="translate(503.8884 276.8719)"><path d="m0 0v-13.457h-13.457v13.457l6.729-6.729z" fill="#fff"/></g></g></svg>

<?xml version="1.0" encoding="UTF-8" standalone="no"?>
<!-- Created with Inkscape (http://www.inkscape.org/) -->

<svg
   xmlns:dc="http://purl.org/dc/elements/1.1/"
   xmlns:cc="http://creativecommons.org/ns#"
   xmlns:rdf="http://www.w3.org/1999/02/22-rdf-syntax-ns#"
   xmlns:svg="http://www.w3.org/2000/svg"
   xmlns="http://www.w3.org/2000/svg"
   xmlns:sodipodi="http://sodipodi.sourceforge.net/DTD/sodipodi-0.dtd"
   xmlns:inkscape="http://www.inkscape.org/namespaces/inkscape"
   width="22.28348mm"
   height="6.1683192mm"
   viewBox="0 0 78.957212 21.856249"
   id="svg83725"
   version="1.1"
   inkscape:version="0.91 r13725"
   sodipodi:docname="Sky Movies Disney.svg">
  <defs
     id="defs83727">
    <clipPath
       clipPathUnits="userSpaceOnUse"
       id="clipPath72154">
      <path
         d="m 480.614,257.811 82.8,0 0,24.803 -82.8,0 0,-24.803 z"
         id="path72156"
         inkscape:connector-curvature="0" />
    </clipPath>
    <clipPath
       clipPathUnits="userSpaceOnUse"
       id="clipPath72138">
      <path
         d="m 490.432,261.47 63.166,0 0,17.485 -63.166,0 0,-17.485 z"
         id="path72140"
         inkscape:connector-curvature="0" />
    </clipPath>
    <clipPath
       clipPathUnits="userSpaceOnUse"
       id="clipPath72114">
      <path
         d="m 480.614,257.811 82.8,0 0,24.803 -82.8,0 0,-24.803 z"
         id="path72116"
         inkscape:connector-curvature="0" />
    </clipPath>
    <clipPath
       clipPathUnits="userSpaceOnUse"
       id="clipPath72102">
      <path
         d="m 490.432,261.47 63.166,0 0,17.485 -63.166,0 0,-17.485 z"
         id="path72104"
         inkscape:connector-curvature="0" />
    </clipPath>
  </defs>
  <sodipodi:namedview
     id="base"
     pagecolor="#ffffff"
     bordercolor="#666666"
     borderopacity="1.0"
     inkscape:pageopacity="0.0"
     inkscape:pageshadow="2"
     inkscape:zoom="7.9195959"
     inkscape:cx="35.086245"
     inkscape:cy="6.8447019"
     inkscape:document-units="px"
     inkscape:current-layer="layer1"
     showgrid="false"
     fit-margin-top="0"
     fit-margin-left="0"
     fit-margin-right="0"
     fit-margin-bottom="0"
     inkscape:window-width="1920"
     inkscape:window-height="1017"
     inkscape:window-x="-8"
     inkscape:window-y="-8"
     inkscape:window-maximized="1" />
  <metadata
     id="metadata83730">
    <rdf:RDF>
      <cc:Work
         rdf:about="">
        <dc:format>image/svg+xml</dc:format>
        <dc:type
           rdf:resource="http://purl.org/dc/dcmitype/StillImage" />
        <dc:title></dc:title>
      </cc:Work>
    </rdf:RDF>
  </metadata>
  <g
     inkscape:label="Layer 1"
     inkscape:groupmode="layer"
     id="layer1"
     transform="translate(-240.52139,-392.86265)">
    <g
       transform="matrix(1.25,0,0,-1.25,-372.51786,741.5564)"
       id="g72098">
      <g
         id="g72100"
         clip-path="url(#clipPath72102)">
        <g
           id="g72106"
           transform="translate(518.4089,267.8422)">
          <path
             d="m 0,0 c -1.26,0.417 -2.522,1.117 -3.352,2.231 -0.067,0.284 0.214,0.499 0.415,0.499 0.415,0.2 0.982,0.281 1.462,0.348 C -0.98,3.211 -0.429,3.211 0.134,3.28 0.134,2.165 0,1.117 0,0 M 7.041,7.82 C 3.486,10.265 -0.98,12.013 -5.442,10.617 -5.928,10.482 -6.07,9.916 -6.274,9.501 c 0.204,-0.352 0.697,-0.284 1.11,-0.352 0.068,0.068 0.417,0.068 0.35,0.284 -0.214,0.281 -0.561,0.135 -0.763,0.281 0.066,0.135 0.27,0.135 0.413,0.202 2.51,0.431 5.017,0 7.178,-0.831 C 4.6,8.035 7.521,6.504 8.635,3.709 8.983,2.661 8.849,1.333 7.936,0.632 6.193,-0.765 3.755,-0.913 1.596,-0.481 1.527,0.835 1.527,1.88 1.527,3.28 1.661,3.428 1.811,3.361 2.014,3.361 3.204,3.211 4.387,3.147 5.429,2.58 5.429,2.449 5.295,2.311 5.229,2.231 5.08,1.962 4.668,1.962 4.734,1.612 4.947,1.531 5.295,1.468 5.578,1.468 5.929,1.681 6.408,2.03 6.542,2.449 6.625,2.861 6.474,3.211 6.276,3.494 5.014,4.609 3.272,4.759 1.661,4.676 L 1.527,4.759 1.461,6.422 C 1.395,6.92 1.181,7.405 0.698,7.552 0.202,6.705 0.268,5.59 0.134,4.543 -0.562,4.408 -1.26,4.26 -1.955,3.977 -2.522,3.776 -3.07,3.494 -3.564,3.011 -3.766,2.797 -3.833,2.515 -3.766,2.231 c 0.829,-1.463 2.373,-2.579 3.833,-3.277 0.067,-0.485 0.067,-1.047 0.416,-1.397 0.282,-0.067 0.565,0 0.764,0 0.349,0.132 0.28,0.561 0.349,0.831 2.44,-0.616 5.162,-0.415 7.186,1.05 1.249,0.979 1.877,2.442 1.527,4.056 C 9.761,5.173 8.499,6.64 7.041,7.82"
             style="fill:#02a8eb;fill-opacity:1;fill-rule:nonzero;stroke:none"
             id="path72108"
             inkscape:connector-curvature="0" />
        </g>
      </g>
    </g>
    <g
       transform="matrix(1.25,0,0,-1.25,-372.51786,741.5564)"
       id="g72110">
      <g
         id="g72112"
         clip-path="url(#clipPath72114)">
        <g
           id="g72118"
           transform="translate(530.1422,272.4384)">
          <path
             d="m 0,0 c -0.216,0 -0.281,-0.215 -0.349,-0.35 -0.216,-1.328 -0.216,-2.659 -0.216,-4.056 0.069,-0.483 -0.065,-1.183 0.497,-1.317 0.27,-0.08 0.617,0 0.832,0.202 C 0.83,-3.909 0.697,-2.378 0.549,-0.833 0.482,-0.486 0.415,0 0,0"
             style="fill:#02a8eb;fill-opacity:1;fill-rule:nonzero;stroke:none"
             id="path72120"
             inkscape:connector-curvature="0" />
        </g>
        <g
           id="g72122"
           transform="translate(530.0739,274.4675)">
          <path
             d="M 0,0 C 0.483,0.831 1.316,1.681 2.227,1.948 2.51,1.948 2.858,2.029 2.99,1.747 3.056,1.18 2.643,0.767 2.227,0.483 2.093,0.349 1.878,0.283 1.665,0.202 1.115,0 0.55,-0.067 0,0 m -1.047,0.483 c -0.146,0.147 -0.075,0.418 0,0.563 0.068,0.134 0.203,0.351 0.35,0.486 C -0.496,1.747 -0.212,1.88 0,2.029 0.137,2.095 0.27,2.095 0.419,2.095 -0.078,1.597 -0.631,1.046 -1.047,0.483 m 4.67,0.631 C 3.754,1.532 3.836,2.095 3.406,2.446 3.207,2.512 2.99,2.726 2.708,2.648 L 2.442,2.995 C 1.945,3.346 1.18,3.278 0.483,3.144 -0.147,2.995 -0.777,2.512 -1.258,2.029 -1.473,1.814 -1.608,1.532 -1.743,1.33 -2.023,0.767 -1.888,0.067 -1.473,-0.349 l 0,-0.633 c 0.147,-0.281 0.215,-0.416 0.426,-0.416 0.203,0 0.35,0.416 0.416,0.483 0.553,-0.134 1.114,-0.202 1.678,-0.067 0.416,0.136 0.697,0.282 1.046,0.484 0.615,0.431 1.18,0.981 1.53,1.612"
             style="fill:#02a8eb;fill-opacity:1;fill-rule:nonzero;stroke:none"
             id="path72124"
             inkscape:connector-curvature="0" />
        </g>
        <g
           id="g72126"
           transform="translate(532.15,271.7535)">
          <path
             d="m 0,0 c -0.48,-0.284 -0.694,-0.765 -0.694,-1.331 0.066,-0.215 0.214,-0.483 0.413,-0.564 1.046,-0.201 2.16,-0.134 3.206,-0.348 C 3.355,-2.38 3.971,-2.38 4.118,-3.011 3.77,-3.494 2.86,-3.642 2.162,-3.776 c -0.631,0 -1.53,-0.283 -2.026,0.282 -0.066,0.067 -0.066,0.282 0.08,0.351 0.698,0.415 1.598,-0.417 2.228,-0.351 0.979,0.135 0.979,0.419 0.979,0.633 -0.216,0.133 -0.766,0.349 -1.195,0.416 -0.83,0.065 -1.675,0.202 -2.29,-0.283 -0.219,-0.215 -0.352,-0.484 -0.285,-0.832 0.285,-0.846 1.112,-1.264 1.96,-1.477 1.112,-0.137 2.358,0 3.124,0.845 0.281,0.416 0.348,1.249 0.144,1.812 -0.91,1.4 -2.787,0.769 -4.116,1.184 -0.133,0.081 -0.414,0.081 -0.414,0.216 1.112,0.484 2.44,0.416 3.62,0.563 0.429,0.067 0.844,0.067 1.114,0.349 0,0.135 0.147,0.267 0,0.416 C 3.555,0.981 1.398,0.765 0,0"
             style="fill:#02a8eb;fill-opacity:1;fill-rule:nonzero;stroke:none"
             id="path72128"
             inkscape:connector-curvature="0" />
        </g>
        <g
           id="g72130"
           transform="translate(540.6964,273.3509)">
          <path
             d="m 0,0 c -0.134,-0.067 -0.069,-0.281 -0.069,-0.416 0.214,-1.33 0.763,-2.511 0.763,-3.989 -0.064,-0.069 0.068,-0.267 -0.133,-0.267 -0.765,1.045 -1.326,2.295 -2.373,3.274 -0.216,0.135 -0.416,0 -0.482,-0.212 -0.429,-0.767 -0.564,-1.6 -0.697,-2.514 0,-0.697 -0.216,-1.532 0.067,-2.164 0.132,-0.213 0.348,-0.416 0.63,-0.416 0.133,0 0.266,0.203 0.349,0.416 l 0.199,2.931 0.067,0.214 c 0.698,-1.048 1.047,-2.308 2.092,-3.145 0.148,-0.133 0.429,-0.065 0.563,0.068 0.561,0.216 0.765,0.847 0.914,1.331 0.131,1.532 -0.215,3.008 -1.048,4.19 C 0.63,-0.482 0.413,-0.067 0,0"
             style="fill:#02a8eb;fill-opacity:1;fill-rule:nonzero;stroke:none"
             id="path72132"
             inkscape:connector-curvature="0" />
        </g>
      </g>
    </g>
    <g
       transform="matrix(1.25,0,0,-1.25,-372.51786,741.5564)"
       id="g72134">
      <g
         id="g72136"
         clip-path="url(#clipPath72138)">
        <g
           id="g72142"
           transform="translate(546.9286,268.4612)">
          <path
             d="m 0,0 c -0.831,0.149 -1.662,-0.202 -2.506,-0.282 l 0,0.08 0.213,0.833 c 0.134,0.486 0.765,0.283 1.114,0.349 0.416,0 0.912,-0.066 1.179,0.216 0,0.201 0.081,0.485 -0.067,0.618 -0.482,0.216 -1.112,0.15 -1.677,0.15 l -0.066,0 0.282,0.832 1.111,0 c 0.498,0.065 1.048,0 1.395,0.281 C 1.047,3.56 0.631,3.911 0.214,4.125 -0.963,4.192 -2.159,3.911 -3.338,3.776 c -0.068,-0.067 -0.346,0 -0.346,-0.135 0.132,-0.564 0.628,-0.632 1.043,-0.78 L -2.79,2.445 C -2.923,2.242 -2.923,1.814 -3.272,1.814 -3.338,1.747 -3.621,1.747 -3.552,1.546 c 0.346,-0.78 -0.415,-1.33 -0.35,-2.098 0.067,-0.562 0.416,-1.126 0.911,-1.327 1.247,-0.216 2.294,0.481 3.205,1.179 C 0.281,-0.483 0.147,-0.202 0,0"
             style="fill:#02a8eb;fill-opacity:1;fill-rule:nonzero;stroke:none"
             id="path72144"
             inkscape:connector-curvature="0" />
        </g>
        <g
           id="g72146"
           transform="translate(551.9957,268.5301)">
          <path
             d="m 0,0 c -0.496,-0.419 -1.047,-0.701 -1.675,-0.701 0.28,0.498 0.628,1.048 0.977,1.612 C -0.349,1.33 0,1.813 0.485,2.244 0.698,2.31 0.698,2.028 0.765,1.959 0.832,1.194 0.551,0.496 0,0 M 0.966,3.142 C 0.765,3.357 0.485,3.423 0.201,3.357 -0.564,2.94 -1.194,2.376 -1.821,1.678 -2.238,1.194 -2.656,0.562 -3.069,0.066 -3.135,0.213 -3.135,0.347 -3.135,0.562 -3.003,1.813 -1.743,2.659 -1.89,3.908 -2.09,3.988 -2.306,3.641 -2.439,3.492 -3.42,2.376 -4.182,1.114 -3.98,-0.419 c 0.063,-0.282 0.213,-0.483 0.279,-0.764 -0.562,-1.196 -0.831,-2.593 -1.112,-3.91 0,-0.35 -0.147,-0.779 0,-1.128 0.202,-0.417 0.7,-0.9 1.112,-0.833 0.281,1.678 0.765,3.278 1.262,4.823 l 0.83,0.067 c 1.396,0.282 2.788,1.612 3.137,3.075 0.216,0.834 -0.066,1.6 -0.562,2.231"
             style="fill:#02a8eb;fill-opacity:1;fill-rule:nonzero;stroke:none"
             id="path72148"
             inkscape:connector-curvature="0" />
        </g>
      </g>
    </g>
    <g
       transform="matrix(1.25,0,0,-1.25,-372.51786,741.5564)"
       id="g72150">
      <g
         id="g72152"
         clip-path="url(#clipPath72154)">
        <path
           d="m 509.357,261.592 0.432,0 0,17.325 -0.432,0 0,-17.325 z"
           style="fill:#02a8eb;fill-opacity:1;fill-rule:nonzero;stroke:none"
           id="path72158"
           inkscape:connector-curvature="0" />
        <g
           id="g72160"
           transform="translate(503.8884,276.8719)">
          <path
             d="m 0,0 0,-13.457 -13.457,0 0,13.457 6.729,-6.729 L 0,0 Z"
             style="fill:#ffffff;fill-opacity:1;fill-rule:nonzero;stroke:none"
             id="path72162"
             inkscape:connector-curvature="0" />
        </g>
      </g>
    </g>
  </g>
</svg>
